X: 25649
T: Martin Riley's
R: reel
M: 4/4
K: Amajor
|:A,2CE D2FA|E2GB ABcA|df ~f2 edcA|B2 cB {/c}BAFE|
A,2CE D2FA|E2GB ABcA|df ~f2 edcA|1 B2 AB cA A2:|2 B2 AB cA AB||
|:c2 ec fcec|Acec BAFA|~E3F ABcA|defg afed|
c2 ec fcec|Acec BAFA|~E3F ABcA|1 dfed cAAB:|2 dfed cAAz||

